src/images/unsavedbutton.svg

<svg width="100" height="29" viewBox="0 0 100 29" fill="none" xmlns="http://www.w3.org/2000/svg">
<rect width="100" height="29" rx="14.5" fill="#313131"/>
<path d="M26.6499 13H25.593C25.5305 12.696 25.4212 12.429 25.2649 12.1989C25.1115 11.9688 24.924 11.7756 24.7024 11.6193C24.4837 11.4602 24.2408 11.3409 23.9737 11.2614C23.7067 11.1818 23.4283 11.142 23.1385 11.142C22.6101 11.142 22.1314 11.2756 21.7024 11.5426C21.2763 11.8097 20.9368 12.2031 20.6839 12.723C20.4339 13.2429 20.3089 13.8807 20.3089 14.6364C20.3089 15.392 20.4339 16.0298 20.6839 16.5497C20.9368 17.0696 21.2763 17.4631 21.7024 17.7301C22.1314 17.9972 22.6101 18.1307 23.1385 18.1307C23.4283 18.1307 23.7067 18.0909 23.9737 18.0114C24.2408 17.9318 24.4837 17.8139 24.7024 17.6577C24.924 17.4986 25.1115 17.304 25.2649 17.0739C25.4212 16.8409 25.5305 16.5739 25.593 16.2727H26.6499C26.5703 16.7187 26.4254 17.1179 26.2152 17.4702C26.005 17.8224 25.7436 18.1222 25.4311 18.3693C25.1186 18.6136 24.7678 18.7997 24.3786 18.9276C23.9922 19.0554 23.5788 19.1193 23.1385 19.1193C22.3942 19.1193 21.7322 18.9375 21.1527 18.5739C20.5732 18.2102 20.1172 17.6932 19.7848 17.0227C19.4524 16.3523 19.2862 15.5568 19.2862 14.6364C19.2862 13.7159 19.4524 12.9205 19.7848 12.25C20.1172 11.5795 20.5732 11.0625 21.1527 10.6989C21.7322 10.3352 22.3942 10.1534 23.1385 10.1534C23.5788 10.1534 23.9922 10.2173 24.3786 10.3452C24.7678 10.473 25.1186 10.6605 25.4311 10.9077C25.7436 11.152 26.005 11.4503 26.2152 11.8026C26.4254 12.152 26.5703 12.5511 26.6499 13ZM30.8803 19.1364C30.2894 19.1364 29.771 18.9957 29.3249 18.7145C28.8817 18.4332 28.5352 18.0398 28.2852 17.5341C28.038 17.0284 27.9144 16.4375 27.9144 15.7614C27.9144 15.0795 28.038 14.4844 28.2852 13.9759C28.5352 13.4673 28.8817 13.0724 29.3249 12.7912C29.771 12.5099 30.2894 12.3693 30.8803 12.3693C31.4712 12.3693 31.9883 12.5099 32.4315 12.7912C32.8775 13.0724 33.2241 13.4673 33.4712 13.9759C33.7212 14.4844 33.8462 15.0795 33.8462 15.7614C33.8462 16.4375 33.7212 17.0284 33.4712 17.5341C33.2241 18.0398 32.8775 18.4332 32.4315 18.7145C31.9883 18.9957 31.4712 19.1364 30.8803 19.1364ZM30.8803 18.233C31.3292 18.233 31.6985 18.1179 31.9883 17.8878C32.2781 17.6577 32.4925 17.3551 32.6317 16.9801C32.771 16.6051 32.8406 16.1989 32.8406 15.7614C32.8406 15.3239 32.771 14.9162 32.6317 14.5384C32.4925 14.1605 32.2781 13.8551 31.9883 13.6222C31.6985 13.3892 31.3292 13.2727 30.8803 13.2727C30.4315 13.2727 30.0621 13.3892 29.7724 13.6222C29.4826 13.8551 29.2681 14.1605 29.1289 14.5384C28.9897 14.9162 28.9201 15.3239 28.9201 15.7614C28.9201 16.1989 28.9897 16.6051 29.1289 16.9801C29.2681 17.3551 29.4826 17.6577 29.7724 17.8878C30.0621 18.1179 30.4315 18.233 30.8803 18.233ZM35.8619 12.4545L37.43 15.1307L38.9982 12.4545H40.1573L38.0437 15.7273L40.1573 19H38.9982L37.43 16.4602L35.8619 19H34.7028L36.7823 15.7273L34.7028 12.4545H35.8619ZM41.5923 21.4545V12.4545H42.5639V13.4943H42.6832C42.7571 13.3807 42.8594 13.2358 42.9901 13.0597C43.1236 12.8807 43.3139 12.7216 43.5611 12.5824C43.8111 12.4403 44.1491 12.3693 44.5753 12.3693C45.1264 12.3693 45.6122 12.5071 46.0327 12.7827C46.4531 13.0582 46.7813 13.4489 47.017 13.9545C47.2528 14.4602 47.3707 15.0568 47.3707 15.7443C47.3707 16.4375 47.2528 17.0384 47.017 17.5469C46.7813 18.0526 46.4545 18.4446 46.0369 18.723C45.6193 18.9986 45.1378 19.1364 44.5923 19.1364C44.1719 19.1364 43.8352 19.0668 43.5824 18.9276C43.3295 18.7855 43.1349 18.625 42.9986 18.446C42.8622 18.2642 42.7571 18.1136 42.6832 17.9943H42.598V21.4545H41.5923ZM42.581 15.7273C42.581 16.2216 42.6534 16.6577 42.7983 17.0355C42.9432 17.4105 43.1548 17.7045 43.4332 17.9176C43.7116 18.1278 44.0526 18.233 44.456 18.233C44.8764 18.233 45.2273 18.1222 45.5085 17.9006C45.7926 17.6761 46.0057 17.375 46.1477 16.9972C46.2926 16.6165 46.3651 16.1932 46.3651 15.7273C46.3651 15.267 46.294 14.8523 46.152 14.483C46.0128 14.1108 45.8011 13.8168 45.517 13.6009C45.2358 13.3821 44.8821 13.2727 44.456 13.2727C44.0469 13.2727 43.7031 13.3764 43.4247 13.5838C43.1463 13.7884 42.9361 14.0753 42.794 14.4446C42.652 14.8111 42.581 15.2386 42.581 15.7273ZM50.831 19.1534C50.4162 19.1534 50.0398 19.0753 49.7017 18.919C49.3636 18.7599 49.0952 18.5312 48.8963 18.233C48.6974 17.9318 48.598 17.5682 48.598 17.142C48.598 16.767 48.6719 16.4631 48.8196 16.2301C48.9673 15.9943 49.1648 15.8097 49.4119 15.6761C49.6591 15.5426 49.9318 15.4432 50.2301 15.3778C50.5313 15.3097 50.8338 15.2557 51.1378 15.2159C51.5355 15.1648 51.858 15.1264 52.1051 15.1009C52.3551 15.0724 52.5369 15.0256 52.6506 14.9602C52.767 14.8949 52.8253 14.7812 52.8253 14.6193V14.5852C52.8253 14.1648 52.7102 13.8381 52.4801 13.6051C52.2528 13.3722 51.9077 13.2557 51.4446 13.2557C50.9645 13.2557 50.5881 13.3608 50.3153 13.571C50.0426 13.7812 49.8509 14.0057 49.7401 14.2443L48.7855 13.9034C48.956 13.5057 49.1832 13.196 49.4673 12.9744C49.7543 12.75 50.0668 12.5937 50.4048 12.5057C50.7457 12.4148 51.081 12.3693 51.4105 12.3693C51.6207 12.3693 51.8622 12.3949 52.1349 12.446C52.4105 12.4943 52.6761 12.5952 52.9318 12.7486C53.1903 12.902 53.4048 13.1335 53.5753 13.4432C53.7457 13.7528 53.831 14.1676 53.831 14.6875V19H52.8253V18.1136H52.7741C52.706 18.2557 52.5923 18.4077 52.4332 18.5696C52.2741 18.7315 52.0625 18.8693 51.7983 18.983C51.5341 19.0966 51.2116 19.1534 50.831 19.1534ZM50.9844 18.25C51.3821 18.25 51.7173 18.1719 51.9901 18.0156C52.2656 17.8594 52.473 17.6577 52.6122 17.4105C52.7543 17.1634 52.8253 16.9034 52.8253 16.6307V15.7102C52.7827 15.7614 52.6889 15.8082 52.544 15.8509C52.402 15.8906 52.2372 15.9261 52.0497 15.9574C51.8651 15.9858 51.6847 16.0114 51.5085 16.0341C51.3352 16.054 51.1946 16.071 51.0866 16.0852C50.8253 16.1193 50.581 16.1747 50.3537 16.2514C50.1293 16.3253 49.9474 16.4375 49.8082 16.5881C49.6719 16.7358 49.6037 16.9375 49.6037 17.1932C49.6037 17.5426 49.733 17.8068 49.9915 17.9858C50.2528 18.1619 50.5838 18.25 50.9844 18.25ZM60.0472 15.267V16.2045H56.4336V15.267H60.0472ZM56.6722 12.4545V19H55.6665V12.4545H56.6722ZM60.8143 12.4545V19H59.8086V12.4545H60.8143ZM63.6566 17.517L66.81 12.4545H67.9691V19H66.9634V13.9375L63.8271 19H62.6509V12.4545H63.6566V17.517ZM68.9205 13.392V12.4545H74.2386V13.392H72.0909V19H71.0852V13.392H68.9205ZM76.5749 14.8239H78.4499C79.217 14.8239 79.8036 15.0185 80.2099 15.4077C80.6161 15.7969 80.8192 16.2898 80.8192 16.8864C80.8192 17.2784 80.7283 17.6349 80.5465 17.956C80.3647 18.2741 80.0977 18.5284 79.7454 18.7188C79.3931 18.9062 78.9613 19 78.4499 19H75.7056V12.4545H76.7113V18.0625H78.4499C78.8477 18.0625 79.1744 17.9574 79.43 17.7472C79.6857 17.5369 79.8136 17.267 79.8136 16.9375C79.8136 16.5909 79.6857 16.3082 79.43 16.0895C79.1744 15.8707 78.8477 15.7614 78.4499 15.7614H76.5749V14.8239Z" fill="white"/>
</svg>

<svg width="100" height="29" fill="none" xmlns="http://www.w3.org/2000/svg"><rect width="100" height="29" rx="14.5" fill="#313131"/><path d="M26.65 13h-1.057a2.196 2.196 0 0 0-.89-1.38 2.385 2.385 0 0 0-.73-.359 2.908 2.908 0 0 0-.834-.119c-.529 0-1.008.134-1.437.4-.426.268-.765.661-1.018 1.181-.25.52-.375 1.158-.375 1.913 0 .756.125 1.394.375 1.914.253.52.592.913 1.018 1.18.43.267.908.4 1.436.4.29 0 .569-.04.836-.119.267-.08.51-.197.728-.353a2.245 2.245 0 0 0 .891-1.385h1.057c-.08.446-.225.845-.435 1.197a3.273 3.273 0 0 1-1.836 1.458c-.387.127-.8.191-1.24.191-.745 0-1.407-.181-1.986-.545-.58-.364-1.036-.88-1.368-1.551-.333-.67-.499-1.466-.499-2.387 0-.92.166-1.715.499-2.386.332-.67.788-1.188 1.368-1.551.58-.364 1.241-.546 1.986-.546.44 0 .853.064 1.24.192.389.128.74.316 1.052.563.313.244.574.542.784.895.21.349.355.748.435 1.197Zm4.23 6.136c-.59 0-1.109-.14-1.555-.421a2.866 2.866 0 0 1-1.04-1.18c-.247-.507-.37-1.098-.37-1.774 0-.681.123-1.277.37-1.785a2.86 2.86 0 0 1 1.04-1.185c.446-.281.964-.422 1.555-.422s1.108.14 1.552.422a2.82 2.82 0 0 1 1.04 1.185c.25.508.374 1.103.374 1.785 0 .677-.125 1.267-.375 1.773-.247.506-.593.9-1.04 1.18-.443.282-.96.422-1.55.422Zm0-.903c.45 0 .819-.115 1.108-.345.29-.23.505-.533.644-.908s.209-.781.209-1.219c0-.437-.07-.845-.21-1.223a2.06 2.06 0 0 0-.643-.916c-.29-.233-.659-.35-1.108-.35-.448 0-.818.117-1.108.35a2.06 2.06 0 0 0-.643.916 3.51 3.51 0 0 0-.209 1.223c0 .438.07.844.209 1.22.14.374.354.677.643.907.29.23.66.345 1.108.345Zm4.982-5.779 1.568 2.677 1.568-2.677h1.16l-2.114 3.273L40.157 19h-1.159l-1.568-2.54L35.862 19h-1.16l2.08-3.273-2.08-3.273h1.16Zm5.73 9v-9h.972v1.04h.12c.073-.113.175-.258.306-.434.134-.18.324-.338.571-.478.25-.142.588-.213 1.014-.213.551 0 1.037.138 1.458.414.42.275.748.666.984 1.171.236.506.354 1.103.354 1.79 0 .694-.118 1.294-.354 1.803-.236.506-.563.898-.98 1.176-.418.276-.9.413-1.445.413-.42 0-.757-.07-1.01-.208a1.871 1.871 0 0 1-.583-.482 6.454 6.454 0 0 1-.316-.452h-.085v3.46h-1.006Zm.989-5.727c0 .495.072.93.217 1.308.145.375.357.67.635.883.279.21.62.315 1.023.315.42 0 .771-.11 1.052-.332.285-.225.498-.526.64-.904.145-.38.217-.804.217-1.27 0-.46-.071-.875-.213-1.244a1.923 1.923 0 0 0-.635-.882c-.281-.219-.635-.328-1.061-.328-.41 0-.753.103-1.031.31a1.868 1.868 0 0 0-.631.862c-.142.366-.213.794-.213 1.282Zm8.25 3.426a2.66 2.66 0 0 1-1.13-.234 1.939 1.939 0 0 1-.805-.686c-.199-.301-.298-.665-.298-1.091 0-.375.074-.679.222-.912.147-.236.345-.42.592-.554.247-.133.52-.233.818-.298a10 10 0 0 1 .908-.162c.398-.051.72-.09.967-.115.25-.029.432-.075.546-.14.116-.066.174-.18.174-.342v-.034c0-.42-.115-.747-.345-.98-.227-.233-.572-.35-1.035-.35-.48 0-.857.106-1.13.316-.272.21-.464.435-.575.673l-.955-.34c.171-.398.398-.708.682-.93.287-.224.6-.38.938-.468.34-.091.676-.137 1.005-.137.21 0 .452.026.725.077.276.048.541.15.797.303.258.153.473.384.643.694.17.31.256.725.256 1.245V19h-1.006v-.886h-.05a1.767 1.767 0 0 1-.342.456c-.159.162-.37.3-.635.413-.264.114-.586.17-.967.17Zm.153-.903c.398 0 .733-.078 1.006-.234a1.595 1.595 0 0 0 .835-1.385v-.92c-.042.05-.136.097-.281.14-.142.04-.307.075-.494.106a22.303 22.303 0 0 1-.963.128c-.262.034-.506.09-.733.166a1.264 1.264 0 0 0-.546.337c-.136.148-.204.35-.204.605 0 .35.129.614.388.793.26.176.592.264.992.264Zm9.063-2.983v.938h-3.613v-.938h3.613Zm-3.375-2.813V19h-1.005v-6.546h1.005Zm4.142 0V19H59.81v-6.546h1.005Zm2.843 5.063 3.153-5.063h1.16V19h-1.007v-5.063L63.827 19h-1.176v-6.546h1.006v5.063Zm5.264-4.125v-.938h5.318v.938H72.09V19h-1.006v-5.608h-2.164Zm7.654 1.432h1.875c.767 0 1.354.194 1.76.584.406.389.61.882.61 1.478 0 .392-.092.749-.273 1.07a1.98 1.98 0 0 1-.802.763c-.352.187-.784.281-1.295.281h-2.744v-6.546h1.005v5.608h1.739c.398 0 .724-.105.98-.315.256-.21.384-.48.384-.81 0-.346-.128-.629-.384-.848-.256-.218-.582-.328-.98-.328h-1.875v-.937Z" fill="#fff"/></svg>
